svgs/sharp-thin/sensor-cloud.svg

<svg xmlns="http://www.w3.org/2000/svg" viewBox="0 0 640 512"><!--! Font Awesome Pro 6.6.0 by @fontawesome - https://fontawesome.com License - https://fontawesome.com/license (Commercial License) Copyright 2024 Fonticons, Inc. --><path d="M16 48l416 0 0 178.4c5.5 1.1 10.8 2.6 16 4.4L448 48l0-16-16 0L16 32 0 32 0 48 0 464l0 16 16 0 208 0 0-16L16 464 16 48zm80 56l0-8L80 96l0 8 0 176 0 8 16 0 0-8 0-176zm64 0l0-8-16 0 0 8 0 176 0 8 16 0 0-8 0-176zM336 344c0-39.8 32.2-72 72-72c28.3 0 52.8 16.3 64.5 40l4.7 9.5 7.8-7.1c7.1-6.5 16.5-10.4 26.9-10.4c22.1 0 40 17.9 40 40l0 .4 0 7.3 7.2 .7C595.6 356 624 386.7 624 424l0 72-72 0-8 0-200 0-72 0 0-72c0-34.8 24.7-63.9 57.6-70.6l6.5-1.3-.1-6.7c0-.5 0-1 0-1.4zm72-88c-47 0-85.4 36.9-87.9 83.3c-37 10.4-64.1 44.4-64.1 84.7l0 80 0 8 8 0 80 0 200 0 8 0 80 0 8 0 0-8 0-80c0-43.3-31.2-79.2-72.4-86.6C564.3 309.6 540.7 288 512 288c-11 0-21.2 3.2-29.8 8.6c-15.6-24.4-43-40.6-74.2-40.6z"/></svg>

<svg xmlns="http://www.w3.org/2000/svg" viewBox="0 0 640 512"><!--! Font Awesome Pro 6.5.2 by @fontawesome - https://fontawesome.com License - https://fontawesome.com/license (Commercial License) Copyright 2024 Fonticons, Inc. --><path d="M16 48H432V226.4c5.5 1.1 10.8 2.6 16 4.4V48 32H432 16 0V48 464v16H16 224V464H16V48zm80 56V96H80v8V280v8H96v-8V104zm64 0V96H144v8V280v8h16v-8V104zM336 344c0-39.8 32.2-72 72-72c28.3 0 52.8 16.3 64.5 40l4.7 9.5 7.8-7.1c7.1-6.5 16.5-10.4 26.9-10.4c22.1 0 40 17.9 40 40l0 .4 0 7.3 7.2 .7C595.6 356 624 386.7 624 424v72H552h-8H344 272V424c0-34.8 24.7-63.9 57.6-70.6l6.5-1.3-.1-6.7c0-.5 0-1 0-1.4zm72-88c-47 0-85.4 36.9-87.9 83.3c-37 10.4-64.1 44.4-64.1 84.7v80 8h8 80H544h8 80 8v-8V424c0-43.3-31.2-79.2-72.4-86.6C564.3 309.6 540.7 288 512 288c-11 0-21.2 3.2-29.8 8.6c-15.6-24.4-43-40.6-74.2-40.6z"/></svg>
